X:29
T:Shady Grove from Luther Davis
Z:abc-transcription Josh Larios <hades@elsewhere.org>, 2014.01.20
S:Canote/Goldman String Band Class, 2013.10.21
M:4/4
L:1/8
K:A mix
|: EF | "A"A2cA BA cB | Ac BA "G"G2 (3DEF | GF GA Bc d2 | "A"e3ee2ef |
"A"ge dd ef gf | ed BA "G"G3A | B2d2ed B2 | "A"A3 AA2 :|
|: "A"ef | ge dd ef gf | ed BA "G"G2 ef | gf ga ge d2 | "A"e3ee2ef |
"A"ge dd ef gf | ed BA "G"G3A | B2d2ed B2 | "A"A3 AA2 :|

